X:24501
T:Whitefryer's Hornpipe
R:Hornpipe
C:Trad. Walsh 1730
O:England
Z:Paul Hardy's Possible Tunebook 2022 (see www.paulhardy.net). Creative Commons cc by-nc-sa licenced.
M:4/4
L:1/8
Q:1/4=160
K:Dmix
|:"Am"cBAG "D"FGAF|"Em"GABG "D"A2D/E/D/z/|F2D/E/D/z/ F2Az |[M:2/4]"Am"A3B|
[M:4/4]"Am"cBAG "D"FGAF|"Em"GABG "Am"ABcA|"G"B2Gz G2z B:|
|:"Am"cBcd "Em"e4|g2(3efg "D"agfe|defd "Em"efge|"Am"a zA2 A3 B|
"Am"cBcd "Em"e4|g2(3efg "D"agfe|defd "Am"ABcA|"G"B2Gz G3 B:|


